packages/blockchain-info-components/src/Images/img/banks/bank-logo-yodlee-test.svg

<svg fill="none" height="32" viewBox="0 0 32 32" width="32" xmlns="http://www.w3.org/2000/svg"><g fill="#8dd3e6"><path d="m7.83125 1.36v4.98l9.79685 3.24 7.5407-2.52z"/><path d="m7.83125 7.78v4.98l7.60005-2.46z"/><path d="m17.6281 16 7.5406-2.46v-.06l-2.1375-.72-7.6 2.52z"/><path d="m17.6281 22.42 7.5406-2.46-2.1375-.72-7.6 2.46z"/><path d="m13.2344 16-5.40315 1.74v1.5l7.60005-2.52z"/></g><path d="m7.83125 19.24v4.98l7.60005-2.52z" fill="#343842"/><path d="m15.4312 16.72 7.6 2.52 2.1375-.72v-.06l-7.5406-2.46z" fill="#343842"/><path d="m25.1688 18.46v-4.92l-7.5407 2.46z" fill="#2682c5"/><path d="m7.83125 19.24 7.60005 2.46 7.6-2.46-7.6-2.52z" fill="#2682c5"/><path d="m7.83125 25.66v4.98l17.33755-5.7-7.5407-2.52z" fill="#343842"/><path d="m25.1688 24.94v-4.98l-7.5407 2.46z" fill="#2682c5"/><path d="m15.4312 10.3 7.6 2.46 2.1375-.72-7.5406-2.46z" fill="#343842"/><path d="m15.4313 15.28-7.60005-2.52v1.5l5.40315 1.74z" fill="#343842"/><path d="m25.1688 12.04v-4.98l-7.5407 2.52z" fill="#2682c5"/><path d="m7.83125 12.76 7.60005 2.52 7.6-2.52-7.6-2.46z" fill="#2682c5"/><path d="m7.83125 14.26v3.48l5.40315-1.74z" fill="#2682c5"/></svg>

<svg width="32" height="32" viewBox="0 0 32 32" fill="none" xmlns="http://www.w3.org/2000/svg">
<path d="M7.83125 1.36V6.34L17.6281 9.58L25.1688 7.06L7.83125 1.36Z" fill="#8DD3E6"/>
<path d="M7.83125 7.78V12.76L15.4313 10.3L7.83125 7.78Z" fill="#8DD3E6"/>
<path d="M17.6281 16L25.1687 13.54V13.48L23.0312 12.76L15.4312 15.28L17.6281 16Z" fill="#8DD3E6"/>
<path d="M17.6281 22.42L25.1687 19.96L23.0312 19.24L15.4312 21.7L17.6281 22.42Z" fill="#8DD3E6"/>
<path d="M13.2344 16L7.83125 17.74V19.24L15.4313 16.72L13.2344 16Z" fill="#8DD3E6"/>
<path d="M7.83125 19.24V24.22L15.4313 21.7L7.83125 19.24Z" fill="#343842"/>
<path d="M15.4312 16.72L23.0312 19.24L25.1687 18.52V18.46L17.6281 16L15.4312 16.72Z" fill="#343842"/>
<path d="M25.1688 18.46V13.54L17.6281 16L25.1688 18.46Z" fill="#2682C5"/>
<path d="M7.83125 19.24L15.4313 21.7L23.0313 19.24L15.4313 16.72L7.83125 19.24Z" fill="#2682C5"/>
<path d="M7.83125 25.66V30.64L25.1688 24.94L17.6281 22.42L7.83125 25.66Z" fill="#343842"/>
<path d="M25.1688 24.94V19.96L17.6281 22.42L25.1688 24.94Z" fill="#2682C5"/>
<path d="M15.4312 10.3L23.0312 12.76L25.1687 12.04L17.6281 9.58L15.4312 10.3Z" fill="#343842"/>
<path d="M15.4313 15.28L7.83125 12.76V14.26L13.2344 16L15.4313 15.28Z" fill="#343842"/>
<path d="M25.1688 12.04V7.06L17.6281 9.58L25.1688 12.04Z" fill="#2682C5"/>
<path d="M7.83125 12.76L15.4313 15.28L23.0313 12.76L15.4313 10.3L7.83125 12.76Z" fill="#2682C5"/>
<path d="M7.83125 14.26V17.74L13.2344 16L7.83125 14.26Z" fill="#2682C5"/>
</svg>
